src/lib/packages/icons/src/assets/line/user-dollar.svg

<svg width="24" height="24" viewBox="0 0 24 24" fill="none" xmlns="http://www.w3.org/2000/svg">
<path d="M21.062 21.025C20.714 21.386 20.276 21.6181 19.801 21.7061V22C19.801 22.414 19.465 22.75 19.051 22.75C18.637 22.75 18.301 22.414 18.301 22V21.701C17.304 21.497 16.523 20.6551 16.405 19.5811C16.361 19.1691 16.6579 18.799 17.0699 18.754C17.4799 18.708 17.852 19.0059 17.897 19.4189C17.948 19.8929 18.322 20.25 18.766 20.25H19.373C19.6 20.25 19.815 20.156 19.98 19.984C20.153 19.805 20.248 19.5669 20.248 19.3149C20.248 18.8829 19.973 18.509 19.578 18.406L18.182 18.046C17.664 17.911 17.204 17.6 16.882 17.17C16.566 16.753 16.39 16.2251 16.39 15.6851C16.39 14.5061 17.212 13.521 18.299 13.298V13C18.299 12.586 18.635 12.25 19.049 12.25C19.4629 12.25 19.799 12.586 19.799 13V13.291C20.815 13.48 21.615 14.3309 21.734 15.4189C21.778 15.8309 21.481 16.201 21.069 16.246C20.664 16.291 20.2869 15.9941 20.2419 15.5811C20.1909 15.1071 19.817 14.75 19.373 14.75H18.766C18.284 14.75 17.891 15.1691 17.891 15.6851C17.891 15.8991 17.958 16.105 18.08 16.266C18.205 16.433 18.3701 16.544 18.5601 16.594L19.9561 16.954C21.0131 17.231 21.748 18.2019 21.748 19.3149C21.75 19.9579 21.506 20.566 21.062 21.025ZM5.75903 6.5C5.75903 4.157 7.66503 2.25 10.009 2.25C12.353 2.25 14.259 4.157 14.259 6.5C14.259 8.843 12.353 10.75 10.009 10.75C7.66503 10.75 5.75903 8.843 5.75903 6.5ZM7.25903 6.5C7.25903 8.017 8.49203 9.25 10.009 9.25C11.526 9.25 12.759 8.017 12.759 6.5C12.759 4.983 11.526 3.75 10.009 3.75C8.49203 3.75 7.25903 4.983 7.25903 6.5ZM14 20.25H6C4.423 20.25 3.75 19.583 3.75 18.02C3.75 17.019 4.057 13.75 8 13.75H12C12.666 13.75 13.2539 13.839 13.7469 14.016C14.1379 14.154 14.5661 13.953 14.7061 13.562C14.8461 13.172 14.6431 12.743 14.2531 12.604C13.5971 12.369 12.839 12.25 12 12.25H8C3.756 12.25 2.25 15.358 2.25 18.02C2.25 20.425 3.582 21.75 6 21.75H14C14.414 21.75 14.75 21.414 14.75 21C14.75 20.586 14.414 20.25 14 20.25Z" fill="currentColor"/>
</svg>

<svg xmlns="http://www.w3.org/2000/svg" width="24" height="24" fill="none"><path fill="currentColor" d="M21.062 21.025a2.334 2.334 0 0 1-1.261.681V22a.75.75 0 0 1-1.5 0v-.299c-.997-.204-1.778-1.046-1.896-2.12a.751.751 0 0 1 1.492-.162c.051.474.425.831.869.831h.607a.837.837 0 0 0 .607-.266.958.958 0 0 0 .268-.67c0-.431-.275-.805-.67-.908l-1.396-.36a2.38 2.38 0 0 1-1.3-.876 2.472 2.472 0 0 1-.492-1.485c0-1.179.822-2.164 1.909-2.387V13a.75.75 0 0 1 1.5 0v.291c1.016.189 1.816 1.04 1.935 2.128a.751.751 0 0 1-1.492.162c-.051-.474-.425-.831-.869-.831h-.607c-.482 0-.875.42-.875.935 0 .214.067.42.189.581a.87.87 0 0 0 .48.328l1.396.36c1.057.277 1.792 1.248 1.792 2.36a2.436 2.436 0 0 1-.686 1.711ZM5.759 6.5a4.255 4.255 0 0 1 4.25-4.25 4.255 4.255 0 0 1 4.25 4.25 4.255 4.255 0 0 1-4.25 4.25 4.255 4.255 0 0 1-4.25-4.25Zm1.5 0a2.752 2.752 0 0 0 2.75 2.75 2.752 2.752 0 0 0 2.75-2.75 2.752 2.752 0 0 0-2.75-2.75 2.752 2.752 0 0 0-2.75 2.75ZM14 20.25H6c-1.577 0-2.25-.667-2.25-2.23 0-1.001.307-4.27 4.25-4.27h4c.666 0 1.254.089 1.747.266a.75.75 0 0 0 .506-1.412c-.656-.235-1.414-.354-2.253-.354H8c-4.244 0-5.75 3.108-5.75 5.77 0 2.405 1.332 3.73 3.75 3.73h8a.75.75 0 0 0 0-1.5Z"/></svg>
